docs/.gitbook/assets/icon-gauge-16@light.svg

<svg width="32" height="32" viewBox="0 0 16 16" fill="none" xmlns="http://www.w3.org/2000/svg">
<rect x="0" y="0" width="16" height="16" fill="#fff"/>
<path fill-rule="evenodd" clip-rule="evenodd" d="M8 3.5C4.96243 3.5 2.5 5.96243 2.5 9C2.5 9.87139 2.69517 10.5793 2.89103 11.0703C2.98411 11.3036 3.25527 11.5 3.67799 11.5H6.06301C6.27946 10.659 7.02918 10.0321 7.93021 10.0012L9.56854 6.43678C9.74153 6.06042 10.1869 5.89555 10.5632 6.06854C10.9396 6.24153 11.1045 6.68686 10.9315 7.06322L9.34338 10.5183C9.62818 10.7767 9.83816 11.116 9.93699 11.5H12.322C12.7447 11.5 13.0159 11.3036 13.109 11.0703C13.3048 10.5793 13.5 9.87139 13.5 9C13.5 5.96243 11.0376 3.5 8 3.5ZM9.73244 13H12.322C13.1781 13 14.1214 12.5805 14.5022 11.6261C14.7542 10.9943 15 10.097 15 9C15 5.13401 11.866 2 8 2C4.13401 2 1 5.13401 1 9C1 10.097 1.24577 10.9943 1.49781 11.6261C1.87856 12.5805 2.82193 13 3.67799 13H6.26756C6.61337 13.5978 7.25972 14 8 14C8.74028 14 9.38663 13.5978 9.73244 13ZM8 11.5C7.72386 11.5 7.5 11.7239 7.5 12C7.5 12.2761 7.72386 12.5 8 12.5C8.27614 12.5 8.5 12.2761 8.5 12C8.5 11.7239 8.27614 11.5 8 11.5Z" fill="#000"/>
</svg>

<svg xmlns="http://www.w3.org/2000/svg" width="32" height="32" fill="none" viewBox="0 0 16 16"><path fill="#fff" d="M0 0h16v16H0z"/><path fill="#000" fill-rule="evenodd" d="M8 3.5A5.5 5.5 0 0 0 2.5 9c0 .871.195 1.58.391 2.07.093.234.364.43.787.43h2.385a2 2 0 0 1 1.867-1.499l1.64-3.564a.75.75 0 0 1 1.362.626l-1.588 3.455a2 2 0 0 1 .594.982h2.385c.423 0 .694-.196.787-.43A5.6 5.6 0 0 0 13.5 9 5.5 5.5 0 0 0 8 3.5M9.732 13h2.59c.856 0 1.8-.42 2.18-1.374A7.1 7.1 0 0 0 15 9 7 7 0 1 0 1 9c0 1.097.246 1.994.498 2.626.38.955 1.324 1.374 2.18 1.374h2.59a2 2 0 0 0 3.464 0M8 11.5a.5.5 0 1 0 0 1 .5.5 0 0 0 0-1" clip-rule="evenodd"/></svg>
